X: 426
T: Mazel
C: From Pete Sokolow, Klez Kamp 2001
R: Waltz
Z: Terry Traub
Z: 2006 John Chambers <jc:trillian.mit.edu>
M: 3/4
K: Dm
L: 1/4
|: "Dm"A, D F | "Dm" A/^G/ A > B | "A" A ^C2-|"A" ^C3| "A"A, ^C E|\
   "A7"G  F E |[1 "Dm" F3-| F3 :|[2 "Dm" D3-| D3 |
   "D7"D ^F A | "D7" c B A | "Gm" B/A/ G2-| "Gm" G3| "C" C E G| \
   "C7"B  A G | "F"A/G/ F > A| "A7"G/F/ E2|
   "Dm"A, D F | "Dm" A/^G/ A > B | "A" A ^C2-|"A" ^C3| "A"A, ^C E|\
   "A7"G  F E | "Dm" D3-| D3 |]



